X:15081
T:Scottisch - La Tusto Barto (Pierre Ladonne)
M:2/4
L:1/16
K:G
D2EF G4|BAGF E4|cEAc BDGB|1 ADFA B2G2:|2 ADFA G4||
|:B2cd e4|dcBA E4|DEFG ABAG|1 FEFD E2D2:|2 FEFD G4||
